!!!COM: Palestrina, Giovanni Perluigi da
!!!OPR: Missa Descendit angelus Domini
!!!OMD: Credo
!!!OTL: Crucifixus
**kern	**kern	**kern	**kern
*Itenor	*Icalto	*Icalto	*Icant
!Tenor	!Altus 2	!Altus 1	!Cantus
*clefGv2	*clefG2	*clefG2	*clefG2
*k[b-]	*k[b-]	*k[b-]	*k[b-]
*F:ion	*F:ion	*F:ion	*F:ion
*M4/2	*M4/2	*M4/2	*M4/2
=92	=92	=92	=92
1r	1.c	0r	0r
[1F	.	.	.
.	2c	.	.
=93	=93	=93	=93
2F]	1d	0r	0r
2F	.	.	.
1G	1e	.	.
=94	=94	=94	=94
1A	2c	0r	0r
.	2c	.	.
2F	2.f	.	.
2F	.	.	.
.	4e	.	.
=95	=95	=95	=95
2.B-	2d	0r	0r
.	2g	.	.
4G	.	.	.
4A	2f	.	.
4B-	.	.	.
4c	2e	.	.
4A	.	.	.
=96	=96	=96	=96
2B-	2d	1.f	0r
2A	2c	.	.
2.B-	2d	.	.
.	[2f	2f	.
4A	.	.	.
=97	=97	=97	=97
1G	2f]	1g	1r
.	2e	.	.
1F	2.f	1a	[1cc
.	4g	.	.
=98	=98	=98	=98
0r	1a	2f	2cc]
.	.	2f	2cc
.	1g	2.b-	1dd
.	.	4a	.
=99	=99	=99	=99
2r	2c	2g	1ee
2c	2g	2.cc	.
2c	2g	.	2cc
.	.	4b-	.
[2f	[2a	4a	2cc
.	.	4g	.
=100	=100	=100	=100
4f]	4a]	1f	2.ff
4e	4g	.	.
2d	4a	.	.
.	4b-	.	4dd
2.c	[1cc	2g	4ee
.	.	.	4ff
.	.	4e	[2gg
4d	.	4f	.
=101	=101	=101	=101
2e	2cc]	4g	2gg]
.	.	4e	.
2f	2cc	2a	1ff
1c	1cc	1g	.
.	.	.	2ee
=102	=102	=102	=102
0F	0a	1f	2ff
.	.	.	2cc
.	.	2r	2cc
.	.	2f	2a
=103	=103	=103	=103
0r	2r	2f	2cc
.	2f	2d	2dd
.	2f	[1a	2cc
.	2d	.	4f
.	.	.	4g
=104	=104	=104	=104
2r	2f	2a]	4a
.	.	.	4b-
2c	4e	4g	4cc
.	4f	4f	4dd
2c	4g	2e	2ee
.	4e	.	.
2A	2a	2cc	4cc
.	.	.	4dd
=105	=105	=105	=105
2c	2g	2cc	4ee
.	.	.	4cc
2d	2f	2a	1ff
1c	1g	2.cc	.
.	.	.	2ee
.	.	4b-	.
=106	=106	=106	=106
2F	1f	2a	2dd
4F	.	1a	4cc
4G	.	.	4b-
4A	2r	.	1cc
4B-	.	.	.
4c	2c	4g	.
4d	.	4f	.
=107	=107	=107	=107
4e	2.c	2g	1cc
4c	.	.	.
1f	.	2a	.
.	4A	.	.
.	2c	1g	2r
2e	2c	.	[2cc
=108	=108	=108	=108
2f	1d	1r	2cc]
1f	.	.	2b-
.	1c	2r	2a
2e	.	[2cc	2g
=109	=109	=109	=109
1d	2r	2cc]	1f
.	1f	2b-	.
1c	.	2a	1cc
.	2e	[2g	.
=110	=110	=110	=110
2.B-	2.d	2g]	1.dd
.	.	1f	.
4A	4c	.	.
2G	2B-	.	.
2G	2B-	2e	4cc
.	.	.	4b-
=111	=111	=111	=111
2F	1A	2.f	2a
2F	.	.	2cc
.	.	4g	.
2F	1r	1a	2cc
2A	.	.	2cc
=112	=112	=112	=112
2B-	1f	0r	2dd
2A	.	.	2cc
1d	2f	.	1ff
.	2f	.	.
=113	=113	=113	=113
2c	2g	0r	2ee
2d	2f	.	1dd
1B-	[1b-	.	.
.	.	.	4cc
.	.	.	4b-
=114	=114	=114	=114
0F	2b-]	1f	2cc
.	2a	.	2dd
.	4a	2f	1cc
.	4b-	.	.
.	4cc	2f	.
.	4a	.	.
=115	=115	=115	=115
0r	2b-	2g	2r
.	2a	2f	1ff
.	1g	[1b-	.
.	.	.	2ee
=116	=116	=116	=116
0r	1f	2b-]	2dd
.	.	2a	2cc
.	1r	2g	2b-
.	.	[2f	2a
=117	=117	=117	=117
1c	1r	2f]	0g
.	.	4e	.
.	.	4d	.
2c	1cc	4e	.
.	.	4f	.
2c	.	4g	.
.	.	4e	.
=118	=118	=118	=118
2d	2b-	2f	0r
2c	1a	2e	.
1f	.	1d	.
.	4g	.	.
.	4f	.	.
=119	=119	=119	=119
2e	2g	2c	0r
1d	2a	2.f	.
.	1b-	.	.
.	.	4d	.
4c	.	[2g	.
4B-	.	.	.
=120	=120	=120	=120
2c	1a	2g]	2r
2d	.	2f#	1dd
1G	2r	1g	.
.	2g	.	2ee
=121	=121	=121	=121
0r	2a	0r	2ff
.	2b-	.	2.gg
.	2.cc	.	.
.	.	.	4ff
.	.	.	4ee
.	4b-	.	4dd
=122	=122	=122	=122
2r	2a	1r	2cc
2G	2g	.	2b-
2A	1f	2r	2cc
2B-	.	2d	[2dd
=123	=123	=123	=123
2c	2e	2e	4dd]
.	.	.	4cc
2A	4d	2f	1cc
.	4c	.	.
1G	2d	2.g	.
.	[2g	.	2b
.	.	4f	.
=124	=124	=124	=124
0r	2g]	2e	2cc
.	2a	2f	2cc
.	2b-	2d	2dd
.	[2cc	2c	2ee
=125	=125	=125	=125
1r	2cc]	1d	1.ff
.	2b-	.	.
2r	2a	1c	.
2c	4g	.	2ee
.	4a	.	.
=126	=126	=126	=126
2d	4b-	0r	2dd
.	4a	.	.
2e	1cc	.	2cc
2f	.	.	1dd
2g	2b-	.	.
=127	=127	=127	=127
2.a	2.cc	2r	1cc
.	.	2f	.
4g	4b-	.	.
4f	2a	2f	2r
8e	.	.	.
8d	.	.	.
2e	2g	2g	2cc
=128	=128	=128	=128
2f	1f	2a	2cc
2d	.	2f	2dd
2c	2r	2g	2ee
2A	2f	2a	2cc
=129	=129	=129	=129
2B-	2f	1d	2.dd
2G	2g	.	.
.	.	.	4ee
1F	2a	1r	1ff
.	2f	.	.
=130	=130	=130	=130
2r	2g	0r	2ee
2B-	1b-	.	1dd
2B-	.	.	.
2c	[2a	.	2cc
=131	=131	=131	=131
2d	2a]	1r	1b-
2e	2g	.	.
2.f	2a	2r	1a
.	2f	2a	.
4e	.	.	.
=132	=132	=132	=132
2d	2f	2a	0r
2g	2g	2b-	.
1f	2a	2cc	.
.	2f	2a	.
=133	=133	=133	=133
1r	2g	2b-	1r
.	2.a	2.cc	.
1F	.	.	1a
.	4g	4b-	.
.	4f	4a	.
.	4e	4g	.
=134	=134	=134	=134
2F	4d	4f	2a
.	4c	4e	.
2G	2g	2d	2b-
2A	2e	2c	2cc
2F	2a	2f	2a
=135	=135	=135	=135
2G	2g	2.d	2b-
2.B-	2.f	.	2.dd
.	.	4c	.
.	.	4d	.
4c	4e	4e	4cc
2A	2c	2f	[2cc
=136	=136	=136	=136
1G	2d	2.g	2cc]
.	2d	.	2b-
.	.	4f	.
2.c	2c	4e	2a
.	.	4d	.
.	[2cc	[2e	2g
4B-	.	.	.
=137	=137	=137	=137
4A	4cc]	2e]	2.a
4G	4b-	.	.
2A	4a	2c	.
.	4g	.	4b-
1F	1a	1f	1cc
=138	=138	=138	=138
0c	0g	0e	0cc
*-	*-	*-	*-
!!!CDT: 1525/^1526/-1594/2/2
!!!OCY: Italia
!!!AGN: Mass (Parody)
!!!AST: renaissance, vocal
!!!ASW: Motet 1532 (Penet)
!!!PWK: Masses, Book 11
!!!RNB: Cadence finals: C
!!!YOR: Le Opere Complete, v. 28, p. 1
!!!YOO: Rome, Italy: Fratelli Scalera
!!!END: 1992//
!!!EED: John Miller
!!!YEC: Copyright 2000, John Miller
!!!YEN: United States of America
!!!YEM: Rights to all derivative electronic formats reserved.
!!!YEM: Refer to licensing agreement for further details.
!!!YEM: This file must be accompanied by the licensing agreement.
!!!YEM: A copy of the licensing agreement may be found at http://www.music-cog.ohio-state.edu/HumdrumDatabases/Palestrina/license.txt
!!!EMD: converted to Humdrum by Bret Aarden
